!!!COM: Palestrina, Giovanni Perluigi da
!!!OPR: De Beata Marie Virginis (II)
!!!OTL: Credo
**kern	**kern	**kern	**kern	**kern
*Ibass	*Itenor	*Itenor	*Icalto	*Icant
!Bassus	!Tenor 2	!Tenor 1	!Altus	!Cantus
*clefF4	*clefGv2	*clefGv2	*clefG2	*clefG2
*k[]	*k[]	*k[]	*k[]	*k[]
*G:mix	*G:mix	*G:mix	*G:mix	*G:mix
*M4/2	*M4/2	*M4/2	*M4/2	*M4/2
=1	=1	=1	=1	=1
0r	0r	0r	1c	0r
.	.	.	2e	.
.	.	.	2f	.
=2	=2	=2	=2	=2
0r	1G	0r	1g	1r
.	2B	.	[1g	2r
.	2c	.	.	2g
=3	=3	=3	=3	=3
0r	1d	1G	1g]	2.b
.	.	.	.	4cc
.	2d	2B	2r	2dd
.	2g	2c	2e	[2ee
=4	=4	=4	=4	=4
0r	2.f	1d	1.a	4ee]
.	.	.	.	4dd
.	.	.	.	1dd
.	8e	.	.	.
.	8d	.	.	.
.	2f	2d	.	.
.	[2e	2g	2g	2cc#
=5	=5	=5	=5	=5
0r	4e]	2.f	1a	2.dd
.	4d	.	.	.
.	1d	.	.	.
.	.	8e	.	8cc
.	.	8d	.	8b
.	.	2f	2d	[1a
.	2c	[2e	2e	.
=6	=6	=6	=6	=6
0r	2d	4e]	2f#	2a]
.	.	4d	.	.
.	2G	1d	2g	2b
.	1A	.	2e	1a
.	.	2c#	[2a	.
=7	=7	=7	=7	=7
2r	1a	0d	2a]	1f#
1d	.	.	2d	.
.	2f#	.	2a	1r
2G	[2g	.	2b	.
=8	=8	=8	=8	=8
2.d	2g]	0r	1a	2r
.	2f#	.	.	1dd
4c	.	.	.	.
2B	[1g	.	2d	.
[2c	.	.	2e	2g
=9	=9	=9	=9	=9
2c]	2g]	0r	2d	2.dd
4B	1d	.	2.g	.
4A	.	.	.	4cc
2G	.	.	.	2b
.	.	.	8f	.
.	.	.	8g	.
2F	2f	.	[2a	[2cc
=10	=10	=10	=10	=10
1G	2e	0r	4a]	2cc]
.	.	.	4g	.
.	4d	.	1g	2b
.	4c	.	.	.
1D	[1d	.	.	1a
.	.	.	2f#	.
=11	=11	=11	=11	=11
1G	1d]	1r	1g	1.b
1r	1r	[1e	[1g	.
.	.	.	.	2cc
=12	=12	=12	=12	=12
0r	0r	2e]	2g]	2b
.	.	2f	2a	2a
.	.	2e	2g	4b
.	.	.	.	4cc
.	.	2d	2f	4dd
.	.	.	.	4a
=13	=13	=13	=13	=13
0r	1r	1e	4g	4cc
.	.	.	4e	4b
.	.	.	1g	4b
.	.	.	.	8a
.	.	.	.	8g
.	2r	1d	.	2a
.	[2d	.	2f#	2a
=14	=14	=14	=14	=14
2r	2d]	2G	1g	1b
1G	2e	1B	.	.
.	2d	.	2r	2r
2A	2c	2c	2e	2a
=15	=15	=15	=15	=15
2G	[0d	2B	2g	2b
2F#	.	2A	2a	1dd
1G	.	1B	2g	.
.	.	.	[2g	2dd
=16	=16	=16	=16	=16
1D	1d]	1.A	2g]	1dd
.	.	.	4f#	.
.	.	.	4e	.
1D	1d	.	2f#	1a
.	.	2A	2f#	.
=17	=17	=17	=17	=17
[0G	[0d	[0G	[0g	[0b
=18	=18	=18	=18	=18
0G]	0d]	0G]	0g]	0b]
!! Et ex Patre
*Ibass	*Itenor	*Itenor	*Icalto	*Icant
!Bassus	!Tenor 2	!Tenor 1	!Altus	!Cantus
*clefF4	*clefGv2	*clefGv2	*clefG2	*clefG2
*k[]	*k[]	*k[]	*k[]	*k[]
*G:mix	*G:mix	*G:mix	*G:mix	*G:mix
*M4/2	*M4/2	*M4/2	*M4/2	*M4/2
=19	=19	=19	=19	=19
0r	1g	0r	0r	2r
.	.	.	.	1dd
.	2f	.	.	.
.	2e	.	.	2cc
=20	=20	=20	=20	=20
0r	2d	0r	1r	2b
.	2.f	.	.	2a
.	.	.	2r	1cc
.	4e	.	.	.
.	2e	.	[2g	.
=21	=21	=21	=21	=21
0r	1d	2r	2g]	2dd
.	.	1d	2f	2.a
.	1A	.	1e	.
.	.	.	.	4b
.	.	2c	.	4cc
.	.	.	.	8b
.	.	.	.	8cc
=22	=22	=22	=22	=22
0r	0r	2B	2d	2dd
.	.	2A	2.a	1cc
.	.	1c	.	.
.	.	.	4g	.
.	.	.	[2g	2b
=23	=23	=23	=23	=23
1r	2r	2d	2g]	1a
.	1d	2d	2f#	.
1G	.	2G	2.g	1b
.	2G	[2g	.	.
.	.	.	4f	.
=24	=24	=24	=24	=24
2C	2.g	4g]	1e	0r
.	.	4f	.	.
2.c	.	2.e	.	.
.	4g	.	.	.
.	2a	.	2r	.
4c	.	8d	.	.
.	.	8c	.	.
2B	[2g	2d	2g	.
=25	=25	=25	=25	=25
2A	2g]	2e	2c	1r
2A	2f#	2c	1cc	.
1G	2g	1d	.	1dd
.	[2d	.	2b	.
=26	=26	=26	=26	=26
1G	2d]	1r	1b	2g
.	2G	.	.	2.gg
1D	2.d	2r	2a	.
.	.	.	.	4ff
.	.	2d	2a	2ff
.	4c	.	.	.
=27	=27	=27	=27	=27
1E	4B	2G	2g	1.ee
.	4A	.	.	.
.	2B	2.g	2e	.
2C	2c	.	2e	.
.	.	4g	.	.
2D	[2A	2f	[2a	[2dd
=28	=28	=28	=28	=28
1.A	2A]	1e	4a]	2dd]
.	.	.	8g	.
.	.	.	8f	.
.	1a	.	2e	4cc#
.	.	.	.	4b
.	.	1e	2.a	1cc#
2A	2e	.	.	.
.	.	.	4a	.
=29	=29	=29	=29	=29
[0D	[0f#	[0d	[0a	[0dd
=30	=30	=30	=30	=30
0D]	0f#]	0d]	0a]	0dd]
!! Genitum
*Ibass	*Itenor	*Itenor	*Icalto	*Icant
!Bassus	!Tenor 2	!Tenor 1	!Altus	!Cantus
*clefF4	*clefGv2	*clefGv2	*clefG2	*clefG2
*k[]	*k[]	*k[]	*k[]	*k[]
*G:mix	*G:mix	*G:mix	*G:mix	*G:mix
*M4/2	*M4/2	*M4/2	*M4/2	*M4/2
=31	=31	=31	=31	=31
1.d	1r	0r	0r	0r
.	[1a	.	.	.
2d	.	.	.	.
=32	=32	=32	=32	=32
2c	2a]	0r	0r	0r
2A	2a	.	.	.
[1c	2g	.	.	.
.	2e	.	.	.
=33	=33	=33	=33	=33
2c]	1.g	0r	0r	0r
4B	.	.	.	.
4A	.	.	.	.
4B	.	.	.	.
4c	.	.	.	.
[2d	2f	.	.	.
=34	=34	=34	=34	=34
2d]	1e	0r	2r	1r
2c#	.	.	1a	.
1d	1d	.	.	2r
.	.	.	2b	2dd
=35	=35	=35	=35	=35
0r	0r	2r	2cc	2ee
.	.	2d	2a	2ff
.	.	2e	2g	2gg
.	.	2f	2a	2ff
=36	=36	=36	=36	=36
0r	0r	2g	2b	2dd
.	.	2f	4a	2.ff
.	.	.	4g	.
.	.	2d	4f	.
.	.	.	4g	4ee
.	.	[2f	[2a	2dd
=37	=37	=37	=37	=37
0r	1r	4f]	4a]	4cc
.	.	4g	4g	4b
.	.	2e	1g	4b
.	.	.	.	8a
.	.	.	.	8g
.	2r	1d	.	1a
.	[2d	.	2f#	.
=38	=38	=38	=38	=38
1r	2d]	2.G	2g	2.b
.	2d	.	1d	.
.	.	4A	.	4cc
2r	2.G	4B	.	[1dd
.	.	4A	.	.
[2G	.	4B	2d	.
.	4A	4c	.	.
=39	=39	=39	=39	=39
2G]	1B	1d	2G	1dd]
2G	.	.	2d	.
2.C	[1c	1r	2.e	2r
.	.	.	.	[2gg
4D	.	.	4f	.
=40	=40	=40	=40	=40
1E	2c]	0r	2g	2gg]
.	2B	.	4e	2gg
.	.	.	8f#	.
.	.	.	8g	.
1F	2A	.	1a	2cc
.	[2d	.	.	2dd
=41	=41	=41	=41	=41
1E	4d]	1r	1g	1ee
.	4c	.	.	.
.	1c	.	.	.
[1D	.	[1d	1f	[1ff
.	4B	.	.	.
.	4A	.	.	.
=42	=42	=42	=42	=42
1D]	1B	2d]	2r	1ff]
.	.	2d	2d	.
1C	1c	2G	1e	1ee
.	.	2A	.	.
=43	=43	=43	=43	=43
1G	2.d	1B	2.g	2dd
.	.	.	.	2dd
.	8c	.	4g	.
.	8d	.	.	.
2E	2e	1c	2g	2cc
2F	2c	.	[2a	2a
=44	=44	=44	=44	=44
1G	2e	1B	4a]	2.b
.	.	.	4g	.
.	1d	.	1g	.
.	.	.	.	4cc
1D	.	1A	.	2dd
.	2d	.	2f#	2a
=45	=45	=45	=45	=45
[0G	[0d	[0G	[0g	[0b
=46	=46	=46	=46	=46
0G]	0d]	0G]	0g]	0b]
!! Et incarnatus
*Ibass	*Itenor	*Itenor	*Icalto	*Icant
!Bassus	!Tenor 2	!Tenor 1	!Altus	!Cantus
*clefF4	*clefGv2	*clefGv2	*clefG2	*clefG2
*k[]	*k[]	*k[]	*k[]	*k[]
*G:mix	*G:mix	*G:mix	*G:mix	*G:mix
*M4/2	*M4/2	*M4/2	*M4/2	*M4/2
=47	=47	=47	=47	=47
0r	1g	0r	0r	0r
.	2f	.	.	.
.	2d	.	.	.
=48	=48	=48	=48	=48
1c	1e	1r	0r	0r
2B	2.d	1g	.	.
2G	.	.	.	.
.	4e	.	.	.
=49	=49	=49	=49	=49
2A	2c	2f	0r	0r
1B-	1d	2d	.	.
.	.	2.f	.	.
4A	4c	.	.	.
4G	4B	4e	.	.
=50	=50	=50	=50	=50
1A	1c	2f	1cc	1r
.	.	2f	.	.
1G	[1d	1g	2b	1gg
.	.	.	2g	.
=51	=51	=51	=51	=51
0r	2d]	0r	2a	2ff
.	2G	.	1b-	2dd
.	[1d	.	.	2.ff
.	.	.	4a	.
.	.	.	4g	4ee
=52	=52	=52	=52	=52
1r	1d]	0r	1a	2ff
.	.	.	.	2ff
1c	1e	.	1g	1gg
=53	=53	=53	=53	=53
2B	2d	1g	0r	0r
2c	2e	.	.	.
2A	2c	2f#	.	.
[2G	[2B	2g	.	.
=54	=54	=54	=54	=54
4G]	4B]	2e	0r	0r
4A	4c	.	.	.
2F	2A	2.d	.	.
1E	1G	.	.	.
.	.	4c#	.	.
.	.	2c#	.	.
=55	=55	=55	=55	=55
2.D	0A	4d	2r	2r
.	.	4e	.	.
.	.	4f	1d	1ff
4E	.	4g	.	.
4F	.	1a	.	.
4G	.	.	.	.
2A	.	.	2c#	2ee
=56	=56	=56	=56	=56
1D	2r	2r	4d	1ff
.	.	.	4e	.
.	1d	1f	4f	.
.	.	.	4g	.
1r	.	.	[1a	2dd
.	2c#	2e	.	[2ee
=57	=57	=57	=57	=57
0r	2d	2f	2a]	4ee]
.	.	.	.	4dd
.	2B-	2d	2g	1dd
.	2A	2e	1a	.
.	2A	2e	.	2cc#
=58	=58	=58	=58	=58
1G	2d	2d	2.b-	1dd
.	1g	1d	.	.
.	.	.	4b-	.
[1A	.	.	1a	1r
.	[2f	[2c	.	.
=59	=59	=59	=59	=59
2A]	2f]	2c]	0r	0r
2G	1e	2B-	.	.
1F	.	1A	.	.
.	[2d	.	.	.
=60	=60	=60	=60	=60
1E	4d]	1G	1g	2r
.	4c#	.	.	.
.	4c#	.	.	1gg
.	4B	.	.	.
2D	2d	2r	[1a	.
2D	2A	2d	.	[2ff
=61	=61	=61	=61	=61
2F	2A	1c	2a]	2ff]
2C	2e	.	2g	1ee
1D	[1a	1A	1f	.
.	.	.	.	[2dd
=62	=62	=62	=62	=62
0A	2a]	1.a	1e	2dd]
.	4g	.	.	4cc#
.	4f	.	.	4b
.	1e	.	1a	2cc#
.	.	2e	.	2cc#
=63	=63	=63	=63	=63
[0D	[0d	[0f#	[0a	[0dd
=64	=64	=64	=64	=64
0D]	0d]	0f#]	0a]	0dd]
!! Et resurrexit
*Ibass	*Itenor	*Itenor	*Icalto	*Icant
!Bassus	!Tenor 2	!Tenor 1	!Altus	!Cantus
*clefF4	*clefGv2	*clefGv2	*clefG2	*clefG2
*k[]	*k[]	*k[]	*k[]	*k[]
*G:mix	*G:mix	*G:mix	*G:mix	*G:mix
*M4/2	*M4/2	*M4/2	*M4/2	*M4/2
=65	=65	=65	=65	=65
0r	1d	0r	1r	0r
.	2c	.	1g	.
.	2B	.	.	.
=66	=66	=66	=66	=66
0r	4A	0r	2f	1r
.	4B	.	.	.
.	4c	.	2e	.
.	4A	.	.	.
.	4B	.	4d	1dd
.	4c	.	4e	.
.	4d	.	4f	.
.	4e	.	4g	.
=67	=67	=67	=67	=67
1r	2f	0r	2a	2cc
.	2g	.	2.g	2b
2r	1f	.	.	2.a
.	.	.	4f	.
2d	.	.	2f	.
.	.	.	.	4b
=68	=68	=68	=68	=68
2c	1g	2r	2e	2cc
2B	.	2d	2g	1dd
1A	1r	2e	2a	.
.	.	2f#	2a	2cc
=69	=69	=69	=69	=69
2G	0r	2.g	2.b	2r
2.G	.	.	.	2dd
.	.	4f	4a	.
.	.	2e	2g	2ee
4G	.	.	.	.
2F#	.	[2d	2a	2ff#
=70	=70	=70	=70	=70
1E	2r	2d]	1g	1.gg
.	2G	2c#	.	.
1D	2A	1d	2r	.
.	2B	.	2d	2ff
=71	=71	=71	=71	=71
0r	2c	1r	2e	2ee
.	2d	.	2f#	1dd
.	1e	2r	1g	.
.	.	[2g	.	2cc#
=72	=72	=72	=72	=72
2r	1d	2g]	2a	1dd
2d	.	4f#	2a	.
.	.	4e	.	.
1d	1r	1f#	1a	2r
.	.	.	.	2dd
=73	=73	=73	=73	=73
1G	2r	1g	1b	1dd
.	2g	.	.	.
2.c	1g	1e	2cc	2g
.	.	.	4c	[2cc
4B	.	.	4d	.
=74	=74	=74	=74	=74
2A	2c	0r	4e	2cc]
.	.	.	4c	.
2G	1g	.	2d	2b
1A	.	.	1c	2a
.	2f	.	.	[2cc
=75	=75	=75	=75	=75
1G	2e	2r	1g	2cc]
.	4d	2d	.	4b
.	4c	.	.	4a
1G	4B	1d	2r	4b
.	4A	.	.	4cc
.	[2B	.	2g	2dd
=76	=76	=76	=76	=76
1E	4B]	1G	1g	2ee
.	4G	.	.	.
.	2.g	.	.	2b
2C	.	2.c	2e	4cc
.	4f	.	.	4b
2C	2e	.	[2a	4a
.	.	4B	.	4g
=77	=77	=77	=77	=77
0D	0d	2A	2a]	2f#
.	.	2B	1g	2g
.	.	1A	.	1a
.	.	.	2f#	.
=78	=78	=78	=78	=78
[0G	[0d	[0G	[0g	[0b
=79	=79	=79	=79	=79
0G]	0d]	0G]	0g]	0b]
!! Et iterum
*Ibass	*Itenor	*Itenor	*Icalto	*Icant
!Bassus	!Tenor 2	!Tenor 1	!Altus	!Cantus
*clefF4	*clefGv2	*clefGv2	*clefG2	*clefG2
*k[]	*k[]	*k[]	*k[]	*k[]
*G:mix	*G:mix	*G:mix	*G:mix	*G:mix
*M4/2	*M4/2	*M4/2	*M4/2	*M4/2
=80	=80	=80	=80	=80
1r	0r	1c	0r	0r
1C	.	2.g	.	.
.	.	4g	.	.
=81	=81	=81	=81	=81
2.G	0r	2g	0r	0r
.	.	2e	.	.
4G	.	.	.	.
2G	.	2d	.	.
2A	.	2c	.	.
=82	=82	=82	=82	=82
2G	0r	2B	2r	0r
2F	.	2A	2c	.
2E	.	2c	2.g	.
2G	.	2B	.	.
.	.	.	4g	.
=83	=83	=83	=83	=83
1c	0r	2.e	2g	0r
.	.	.	2a	.
.	.	8d	.	.
.	.	8c	.	.
2B	.	2d	2g	.
[2A	.	[2c	2f	.
=84	=84	=84	=84	=84
2A]	0r	2c]	2e	0r
2G	.	2B	2g	.
4F	.	4A	[1cc	.
4G	.	4B	.	.
4A	.	4c	.	.
4B	.	4d	.	.
=85	=85	=85	=85	=85
1c	0r	4e	2cc]	1r
.	.	4f#	.	.
.	.	1g	2b	.
1d	.	.	1a	2r
.	.	2f#	.	[2dd
=86	=86	=86	=86	=86
1G	2r	1g	2.b	2dd]
.	1g	.	.	2b
.	.	.	4a	.
2B	.	1r	1g	2dd
2c	2e	.	.	2cc
=87	=87	=87	=87	=87
2G	2g	0r	1r	2b
2.A	2f	.	.	1cc
.	1e	.	2r	.
4A	.	.	.	.
2E	.	.	[2g	4b
.	.	.	.	4a
=88	=88	=88	=88	=88
2G	2d	0r	2g]	2b
2A	2c	.	2e	1cc
1G	2e	.	1g	.
.	4d	.	.	2b
.	4c	.	.	.
=89	=89	=89	=89	=89
0r	4d	0r	2f	2a
.	4A	.	.	.
.	2c	.	2e	1g
.	2B	.	2d	.
.	2A	.	[2c	2f#
=90	=90	=90	=90	=90
1r	1G	1.d	2c]	[0g
.	.	.	4B	.
.	.	.	4A	.
[1G	1r	.	1B	.
.	.	2d	.	.
=91	=91	=91	=91	=91
2G]	2r	2G	2d	1g]
2G	1g	2B	2d	.
2C	.	2c	1e	1r
2E	2g	2B	.	.
=92	=92	=92	=92	=92
2F	2c	2A	0r	0r
2E	2e	2G	.	.
4D	1f	2.A	.	.
4E	.	.	.	.
4F	.	.	.	.
4G	.	4B	.	.
=93	=93	=93	=93	=93
4A	2e	1c	0r	1r
4B	.	.	.	.
1c	2e	.	.	.
.	[1d	[1G	.	[1dd
4B	.	.	.	.
4A	.	.	.	.
=94	=94	=94	=94	=94
1B	1d]	1G]	2r	2dd]
.	.	.	1g	2dd
2c	[1e	2r	.	2g
2G	.	2g	2g	2b
=95	=95	=95	=95	=95
1A	2e]	2e	2c	1cc
.	2.A	2.a	2e	.
1F	.	.	2f	1a
.	4B	4g	.	.
.	2c	4f	[2a	.
.	.	4e	.	.
=96	=96	=96	=96	=96
1G	2B	1d	2a]	1b
.	2G	.	1g	.
1D	1A	1d	.	1a
.	.	.	2f#	.
=97	=97	=97	=97	=97
[0G	[0G	[0d	[0g	[0b
=98	=98	=98	=98	=98
0G]	0G]	0d]	0g]	0b]
!! Qui cum Patre
*Ibass	*Itenor	*Itenor	*Icalto	*Icant
!Bassus	!Tenor 2	!Tenor 1	!Altus	!Cantus
*clefF4	*clefGv2	*clefGv2	*clefG2	*clefG2
*k[]	*k[]	*k[]	*k[]	*k[]
*G:mix	*G:mix	*G:mix	*G:mix	*G:mix
*M4/2	*M4/2	*M4/2	*M4/2	*M4/2
=99	=99	=99	=99	=99
0r	1G	0r	1r	0r
.	1B	.	1g	.
=100	=100	=100	=100	=100
0r	1c	0r	1e	1g
.	2G	.	1d	1b
.	2G	.	.	.
=101	=101	=101	=101	=101
0r	4A	1r	4c	1cc
.	4B	.	4d	.
.	4c	.	4e	.
.	4A	.	4c	.
.	4B	1G	[1g	[1dd
.	4A	.	.	.
.	4B	.	.	.
.	4c	.	.	.
=102	=102	=102	=102	=102
1G	1d	1B	0g]	2dd]
.	.	.	.	2dd
1E	1G	1c	.	4ee
.	.	.	.	4ff
.	.	.	.	[2gg
=103	=103	=103	=103	=103
1D	2A	2d	2r	4gg]
.	.	.	.	4ff
.	2B	2d	2d	1ff
4C	1c	4e	2.g	.
4D	.	4f	.	.
4E	.	[2g	.	[2ee
4F	.	.	4a	.
=104	=104	=104	=104	=104
2G	1r	2g]	2b-	4ee]
.	.	.	.	4dd
2D	.	2f	2a	1dd
1A	2r	1e	1a	.
.	[2a	.	.	2cc#
=105	=105	=105	=105	=105
2.B-	2a]	1d	2r	1dd
.	2g	.	1d	.
4B-	.	.	.	.
1A	2f	1r	.	2r
.	2e	.	2c	[2a
=106	=106	=106	=106	=106
0r	2f	0r	2d	2a]
.	2e	.	2e	2g
.	1d	.	1f	2a
.	.	.	.	2b
=107	=107	=107	=107	=107
2r	1c	1r	2e	1.cc
2A	.	.	2e	.
2A	1r	2r	2f	.
2G	.	2d	2g	2b
=108	=108	=108	=108	=108
1.F	2r	2d	2a	1a
.	2A	2c	2.f	.
.	2A	2d	.	1r
.	.	.	8e	.
.	.	.	8d	.
2E	2G	2e	2c	.
=109	=109	=109	=109	=109
1D	2A	1f	1d	2r
.	2B	.	.	2dd
1C	2.c	1e	2G	1ee
.	.	.	[2g	.
.	8B	.	.	.
.	8A	.	.	.
=110	=110	=110	=110	=110
0r	2B	0r	2g]	2dd
.	2A	.	2a	2cc
.	1r	.	2g	2b
.	.	.	2f	[2cc
=111	=111	=111	=111	=111
0r	0r	1r	2e	2cc]
.	.	.	1g	2b
.	.	2r	.	1a
.	.	[2d	2f#	.
=112	=112	=112	=112	=112
1.G	0r	2d]	1.g	2b
.	.	2e	.	1b
.	.	2d	.	.
2A	.	2c	2e	2cc
=113	=113	=113	=113	=113
2G	1d	2B	2g	2dd
2F	.	4A	2a	2dd
.	.	4B	.	.
1E	1e	2c	2g	1gg
.	.	2B	2e	.
=114	=114	=114	=114	=114
2.F	2d	1A	2a	1.ff
.	2c	.	2.f	.
4E	.	.	.	.
2D	2B	2d	.	.
.	.	.	4g	.
2C	[2c	2e	[2a	2ee
=115	=115	=115	=115	=115
0D	2c]	2f#	2a]	0dd
.	2B	1g	2g	.
.	1A	.	1a	.
.	.	2f#	.	.
=116	=116	=116	=116	=116
[0G	[0G	[0g	[0b	[0dd
=117	=117	=117	=117	=117
0G]	0G]	0g]	0b]	0dd]
!! Confiteor
*Ibass	*Itenor	*Itenor	*Icalto	*Icant
!Bassus	!Tenor 2	!Tenor 1	!Altus	!Cantus
*clefF4	*clefGv2	*clefGv2	*clefG2	*clefG2
*k[]	*k[]	*k[]	*k[]	*k[]
*G:mix	*G:mix	*G:mix	*G:mix	*G:mix
*M4/2	*M4/2	*M4/2	*M4/2	*M4/2
=118	=118	=118	=118	=118
0r	0r	0r	1g	2r
.	.	.	.	2g
.	.	.	2.f	2.a
.	.	.	4e	4g
=119	=119	=119	=119	=119
0r	2r	2r	2f	2a
.	2G	2g	2d	2b
.	2.A	2.f	1c	1cc
.	4G	4e	.	.
=120	=120	=120	=120	=120
2r	2A	2f	2r	0r
2G	2B	2d	2g	.
2.F	1c	[1f	2.a	.
4E	.	.	4g	.
=121	=121	=121	=121	=121
2F	1r	1f]	2a	2r
2D	.	.	2b	2dd
1C	2r	[1g	1cc	2ee
.	2G	.	.	[2gg
=122	=122	=122	=122	=122
0r	2B	1g]	2r	4gg]
.	.	.	.	4ff
.	2c	.	2g	2ee
.	2G	2r	2b	2dd
.	4c	2e	2cc	[2ee
.	4d	.	.	.
=123	=123	=123	=123	=123
0r	4e	2g	1b	2ee]
.	4f#	.	.	.
.	1g	2G	.	4dd
.	.	.	.	4cc
.	.	1d	1a	2.dd
.	2f#	.	.	.
.	.	.	.	4cc
=124	=124	=124	=124	=124
2r	1g	1G	1g	2b
2C	.	.	.	1ee
2E	1r	2r	1c	.
2F	.	2A	.	2cc
=125	=125	=125	=125	=125
2G	0r	2B	2e	2b
2A	.	2c	2f	2a
2G	.	2d	2g	2b
[2c	.	[2e	2a	2cc
=126	=126	=126	=126	=126
4c]	0r	4e]	2g	0r
4B	.	4d	.	.
4A	.	2e	1cc	.
4G	.	.	.	.
2A	.	2f#	.	.
2G	.	[2g	2b	.
=127	=127	=127	=127	=127
1d	1r	4g]	1a	0r
.	.	8f#	.	.
.	.	8e	.	.
.	.	2f#	.	.
[1G	2r	1g	2g	.
.	2G	.	[2d	.
=128	=128	=128	=128	=128
2G]	2B	1r	2d]	1g
2E	2c	.	2e	.
2D	2d	2r	2f	2b
2C	2e	2G	2g	2cc
=129	=129	=129	=129	=129
2G	2d	2B	2.g	2dd
2C	1g	2c	.	2ee
.	.	.	4a	.
[1G	.	2d	[1b	2dd
.	4G	2e	.	[2gg
.	4A	.	.	.
=130	=130	=130	=130	=130
2G]	4B	1d	2b]	2gg]
.	4c	.	.	.
2D	2d	.	2a	1ff
1E	1G	1g	2cc	.
.	.	.	2b	[2ee
=131	=131	=131	=131	=131
2.F	[0A	1f	0a	4ee]
.	.	.	.	4dd
.	.	.	.	1dd
4G	.	.	.	.
1A	.	1e	.	.
.	.	.	.	2cc#
=132	=132	=132	=132	=132
[0D	1A_	[0d	[0f#	[0dd
.	1A_	.	.	.
=133	=133	=133	=133	=133
0D]	0A]	0d]	0f#]	0dd]
!! Et vitam
*Ibass	*Itenor	*Itenor	*Icalto	*Icant
!Bassus	!Tenor 2	!Tenor 1	!Altus	!Cantus
*clefF4	*clefGv2	*clefGv2	*clefG2	*clefG2
*k[]	*k[]	*k[]	*k[]	*k[]
*G:mix	*G:mix	*G:mix	*G:mix	*G:mix
*M4/2	*M4/2	*M4/2	*M4/2	*M4/2
=134	=134	=134	=134	=134
0r	0r	0r	1c	0r
.	.	.	2e	.
.	.	.	2f	.
=135	=135	=135	=135	=135
0r	0r	0r	1.g	2r
.	.	.	.	2g
.	.	.	.	2b
.	.	.	4f	2cc
.	.	.	4e	.
=136	=136	=136	=136	=136
0r	0r	0r	2f	1dd
.	.	.	2g	.
.	.	.	2c	1ee
.	.	.	[2cc	.
=137	=137	=137	=137	=137
0r	1G	0r	2cc]	1.dd
.	.	.	2.b	.
.	2B	.	.	.
.	.	.	4a	.
.	2c	.	[2g	4cc
.	.	.	.	4b
=138	=138	=138	=138	=138
1r	1d	0r	2g]	1a
.	.	.	2f#	.
1C	[1e	.	[1g	2.cc
.	.	.	.	8b
.	.	.	.	8a
=139	=139	=139	=139	=139
2E	2e]	1r	2g]	2g
2F	4d	.	4f	2a
.	4c	.	4e	.
[1G	4B	2r	2.d	1b
.	4c	.	.	.
.	2d	2G	.	.
.	.	.	4c	.
=140	=140	=140	=140	=140
2G]	2G	2B	4d	2r
.	.	.	4e	.
4F	1c	2c	2.f	2a
4E	.	.	.	.
2F	.	1d	.	2a
.	.	.	4e	.
2G	2B	.	2d	2b
=141	=141	=141	=141	=141
1C	2.G	1e	2c	1cc
.	.	.	2.g	.
.	4A	.	.	.
2.D	4B	1d	.	2b
.	4c	.	8f#	.
.	.	.	8e	.
.	2d	.	4f#	[2a
4E	.	.	4g	.
=142	=142	=142	=142	=142
2F	2A	2c	2a	2a]
2G	4B	2B	1g	1dd
.	4c	.	.	.
1D	2.d	1A	.	.
.	.	.	2f#	2a
.	4d	.	.	.
=143	=143	=143	=143	=143
[0G	[0d	[0G	[0g	[0b
=144	=144	=144	=144	=144
0G]	0d]	0G]	0g]	0b]
=145	=145	=145	=145	=145
1r	0r	1G	0r	0r
1D	.	[1d	.	.
=146	=146	=146	=146	=146
2.G	0r	2d]	0r	1r
.	.	2B	.	.
4A	.	.	.	.
2B	.	2d	.	1g
[2c	.	2e	.	.
=147	=147	=147	=147	=147
4c]	0r	0d	2r	1.dd
8B	.	.	.	.
8A	.	.	.	.
2B	.	.	2d	.
1G	.	.	2.g	.
.	.	.	.	2b
.	.	.	4a	.
=148	=148	=148	=148	=148
2r	0r	1.G	2b	2dd
2C	.	.	2.cc	2ee
1G	.	.	.	1dd
.	.	.	8b	.
.	.	.	8a	.
.	.	[2g	2b	.
=149	=149	=149	=149	=149
2E	1r	2g]	2g	1cc
2F	.	4f	2.a	.
.	.	4e	.	.
2G	1G	2d	.	2b
.	.	.	4g	.
2E	.	2e	[2g	2g
=150	=150	=150	=150	=150
1D	1.d	2r	2g]	1a
.	.	2A	2f#	.
2.G	.	2B	2g	1g
.	2B	[2d	2d	.
4A	.	.	.	.
=151	=151	=151	=151	=151
2B	2d	2d]	2.g	1r
2c	2e	2c	.	.
.	.	.	4a	.
1G	1d	4B	4b	1g
.	.	4G	4cc	.
.	.	2g	[2b	.
=152	=152	=152	=152	=152
2A	2c	2e	4b]	1cc
.	.	.	4a	.
2F	2A	2f	2.a	.
1G	1B	[1d	.	2.b
.	.	.	4g	.
.	.	.	[2g	.
.	.	.	.	4cc
=153	=153	=153	=153	=153
0D	0A	0d]	2g]	0dd
.	.	.	4f#	.
.	.	.	4e	.
.	.	.	1f#	.
=154	=154	=154	=154	=154
[0G	[0G	[0d	[0g	[0b
=155	=155	=155	=155	=155
0G]	0G]	0d]	0g]	0b]
==	==	==	==	==
*-	*-	*-	*-	*-
!!!CDT: 1525/^1526/-1594/2/2
!!!OCY: Italia
!!!AGN: Mass (Paraphrase)
!!!AST: renaissance, vocal
!!!ASW: Gregorian Mass
!!!PWK: Masses, Book Mantuan I
!!!RNB: Cadence finals: D
!!!YOR: Le Opere Complete, v. 18, p. 126
!!!YOO: Rome, Italy: Fratelli Scalera
!!!END: 1992//
!!!EED: John Miller
!!!YEC: Copyright 2000, John Miller
!!!YEN: United States of America
!!!YEM: Rights to all derivative electronic formats reserved.
!!!YEM: Refer to licensing agreement for further details.
!!!YEM: This file must be accompanied by the licensing agreement.
!!!YEM: A copy of the licensing agreement may be found at http://www.music-cog.ohio-state.edu/HumdrumDatabases/Palestrina/license.txt
!!!EMD: converted to Humdrum by Bret Aarden
